icons/Clipboard.svg

<svg width="24" height="24" viewBox="0 0 24 24" fill="none" xmlns="http://www.w3.org/2000/svg">
<path fill-rule="evenodd" clip-rule="evenodd" d="M8.35352,5.74997h-1.35352c-0.69036,0 -1.25,0.55964 -1.25,1.25v12.00003c0,0.6903 0.55964,1.25 1.25,1.25h10c0.6904,0 1.25,-0.5597 1.25,-1.25v-12.00003c0,-0.69036 -0.5596,-1.25 -1.25,-1.25h-1.3535c-0.3265,1.15425 -1.3877,2 -2.6465,2h-2c-1.25878,0 -2.32002,-0.84575 -2.64648,-2zM15.6465,4.24997h1.3535c1.5188,0 2.75,1.23122 2.75,2.75v12.00003c0,1.5188 -1.2312,2.75 -2.75,2.75h-10c-1.51878,0 -2.75,-1.2312 -2.75,-2.75v-12.00003c0,-1.51878 1.23122,-2.75 2.75,-2.75h1.35352c0.32646,-1.15425 1.3877,-2 2.64648,-2h2c1.2588,0 2.32,0.84575 2.6465,2zM11,6.24997h2c0.6904,0 1.25,-0.55964 1.25,-1.25c0,-0.69036 -0.5596,-1.25 -1.25,-1.25h-2c-0.6904,0 -1.25,0.55964 -1.25,1.25c0,0.69036 0.5596,1.25 1.25,1.25z" fill="#002B51"/>
</svg>

<svg width="24" height="24" viewBox="0 0 24 24" fill="none" xmlns="http://www.w3.org/2000/svg">
<path fill-rule="evenodd" clip-rule="evenodd" d="M8.35352 5.74997H7C6.30964 5.74997 5.75 6.30961 5.75 6.99997V19C5.75 19.6903 6.30964 20.25 7 20.25H17C17.6904 20.25 18.25 19.6903 18.25 19V6.99997C18.25 6.30961 17.6904 5.74997 17 5.74997H15.6465C15.32 6.90422 14.2588 7.74997 13 7.74997H11C9.74122 7.74997 8.67998 6.90422 8.35352 5.74997ZM15.6465 4.24997H17C18.5188 4.24997 19.75 5.48119 19.75 6.99997V19C19.75 20.5188 18.5188 21.75 17 21.75H7C5.48122 21.75 4.25 20.5188 4.25 19V6.99997C4.25 5.48119 5.48122 4.24997 7 4.24997H8.35352C8.67998 3.09572 9.74122 2.24997 11 2.24997H13C14.2588 2.24997 15.32 3.09572 15.6465 4.24997ZM9.75 4.99997C9.75 4.30961 10.3096 3.74997 11 3.74997H13C13.6904 3.74997 14.25 4.30961 14.25 4.99997C14.25 5.69033 13.6904 6.24997 13 6.24997H11C10.3096 6.24997 9.75 5.69033 9.75 4.99997Z" fill="#002B51"/>
</svg>
